X:58
T:score149
L:1/8
Q:1/4=96
M:4/4
I:linebreak $
K:Eb
!p! e2 d>c | B4 c2 B>A | uG4 A2 GF | uB4 E2 DE |$ (G2 F2)!f! !>!e2 d>c | B4!p! c2 B>A | %6
 uG4 A2 GF |$ (Be)(EA) (G2 F>)E | E4 z4 |] %9
